X: 041
T: 6 Les petits Ballets
T: les Petits Ballets
B: Robert Landrin "Potpourri fran\,cois des contre-danse ancienne tel quil se danse chez la Reine ..." 1760 p.4 #1 dance 01 #7
S: http://memory.loc.gov/cgi-bin/query/D?musdibib:2:./temp/~ammem_EbRS:
Z: 2014 John Chambers <jc:trillian.mit.edu>
N: The A in bar 3 may be G.
M: 6/8
L: 1/8
K: G
% - - - - - - - - - - - - - - - - - - - - - - - - -
!segno!BcB |\
A2G F3E | D3 G2D | E2D AFE | D3 BcB |\
A2G F2E | D3 G2D | GcB AGF | G3 |]
B2!f!c |\
ded dcB | c2A A2B | cdc cBA | B2G B2c |\
ded dBc | ded dBc | ded dcB | A3 |]
g2d |\
c2B g2B | A2G g2d | c2B g2B | A2G g2f |\
efd cde | !segno!A3 d2A | dgf edc | !segno!d3 |]
% - - - - - - - - - - - - - - - - - - - - - - - - -

%%sep 1 1 500
%%sep 1 1 500
